X:189
T: Lustige Handwerksburschen (2-93) S. 271
N: P0964
O: Lothringen
S: PINCK, Louis: Verklingende Weisen, Bd 2, Metz 1928]
R: Berufslied, Brautwerbung]
M: 2/4
L: 1/8
K: G
D | GGBB | dde
e | ddcA | BBB
D | GABc | dde
e | ddcA | BBB
D | GABc | d2
e2 | ddcd | B2z

